X:1
T:457 - ConfianÃ§a Em Deus
T:Letra: Eliza A. Walker
T:Trad.: SalomÃ£o Luiz Ginsburg (1867-1927)
T:MÃºsica: George Coles Stebbins (1846-1945)
M:4/4
L:1/8
K:Ebmaj
V:1
B | "Eb"B2G "Ab"A2c | "Eb"B3 G2"(Bb7)"F | "(Eb)"E2D E2G | "Bb"F3 z2 B | "Eb"B2G "Ab"A2c | "Eb"B3 G2E | "Fm"F2A "Eb/Bb"G2"Bb7"F | "Eb"E3 z2 || B | "Ab"c3- c2c | "Eb"B3- B2B | "Bb7"A2G A2B | "Eb"G3- G-A B | "Ab"c3- c2c | "Eb"B3- B2G | "Fm"F2A "Eb/Bb"G2"Bb7"F | "Eb"E3 z2 |]
w:1.~Con-fi-a sem-pre,Ã³ cren-te, Na lu-ta por Je-sus, Em Deus, pois queÃ  vi-tÃ³-ria Com glÃ³-ria nos con-duz.     Con-fi_aem Deus,_    Na lu-ta por Je-sus;__    Con-fi_aem Deus,_    Que sem-pre nos con-duz.
w:2.~No mei-o dos pe-ri-gos, So-fren-do ten-ta-Ã§Ãµes, Con-fi-aem Deus, que sem-pre VÃª tu-as a-fli-Ã§Ãµes.
w:3.~Je-sus Ã© po-de-ro-so, A-mi-go sem i-gual; Con-fia ne-le,Ã³ cren-te, A-tÃ© o di-a fi-nal.            				
W:
W:
W:1. Confia sempre, Ã³ crente,
W:Na luta por Jesus,
W:Em Deus, pois que Ã  vitÃ³ria
W:Com glÃ³ria nos conduz.
W:
W:(Estribilho)
W:Confia em Deus,
W:Na luta por Jesus;
W:Confia em Deus,
W:Que sempre nos conduz.
W:
W:
W:
W:2. No meio dos perigos,
W:Sofrendo tentaÃ§Ãµes,
W:Confia em Deus, que sempre
W:VÃª tuas afliÃ§Ãµes.
W:
W:3. Jesus Ã© poderoso,
W:Amigo sem igual;
W:Confia nele, Ã³ crente,
W:AtÃ© o dia final.
W:
W:

